X:48
T:Blair Drummond
R:Reel
B:The Athole Collection
M:C|
L:1/8
K:G
G2 B/c/d BgdB|G2 B/c/d A=fAF|G2 B/c/d Bgde|=fadf AFcA:|
|:~g2 dB gBdB|~g2 de =fcAF|~g2 dB gBde|=fage =fcAF:|
|:BGGA BGBg|BGGB A=fAF|BGGA Bgde|=fadf AfcA:|
|:~g2 dB gBdB|~g de =fcAF|~g dB gBde|=fadf AfcA:|

